X:1
T:Shepherd's Holiday
T:Shepherd's Holiday
T:John Playford, 1651
C:John Playford, 1651
%%score 1 2
L:1/8
Q:3/8=108
M:6/8
K:Gmin
V:1 treble 
V:2 treble 
V:1
|:"^A" d |"Bb" d>ed"Eb" g3 |"Bb" f3"Ab" f e2 |"Bb" d>ed"Ab" cdB |"F" A>GA"^/" B/A/B/c/d/e/ | %5
"Bb" f>ed"Ab" cdB |"Bb" B>cB"^/" B2 :: d |"Bb" d>ef dcB | f2 d f2 F |"Gm" B>cd BAG | d2 G d2 D | %12
"Eb" G>AB GFE |"Gm" B3"F" c>de/f/ |"Gm" d>cB/A/"F" B>AG |"Gm" G3-"^/" G2 :| %16
V:2
|: z |"Bb" B3"Eb" e>fe |"Bb" d>ed"Ab" c2 _A |"Bb" B>cB"Ab" _A2 E |"F" F>GF"^/" F2 F | %5
"Bb" B>cB _A2 E |"Bb" F3 F2 :: z |"Bb" B2 F B2 F | d>ef dcB |"Gm" G2 D G2 D | B>cd BAG | %12
"Eb" E2 B, E2 B, |"Gm" G>AB"F" A>GF |"Gm" G2 D"F" F2 C |"Gm" D>CD G,2 :| %16

